X: 51
M:C|
L:1/8
K:C
uA|\
ue|\
g>agc acgc | fdec Bdde | g>agc acgc | fedf ecce |
gagc acgc  | fdec Bdde | cGEG cdea  | gcgf ecc |]


